assets/images/icons/src/fax.svg

<?xml version="1.0" encoding="utf-8"?>
<!-- Generated by IcoMoon.io -->
<!DOCTYPE svg PUBLIC "-//W3C//DTD SVG 1.1//EN" "http://www.w3.org/Graphics/SVG/1.1/DTD/svg11.dtd">
<svg version="1.1" xmlns="http://www.w3.org/2000/svg" xmlns:xlink="http://www.w3.org/1999/xlink" width="14" height="14" viewBox="0 0 14 14">
<path fill="#444444" d="M2.25 3q0.516 0 0.883 0.367t0.367 0.883v8.5q0 0.516-0.367 0.883t-0.883 0.367h-1q-0.516 0-0.883-0.367t-0.367-0.883v-8.5q0-0.516 0.367-0.883t0.883-0.367h1zM13 4.273q0.453 0.266 0.727 0.727t0.273 1v6q0 0.828-0.586 1.414t-1.414 0.586h-6.75q-0.516 0-0.883-0.367t-0.367-0.883v-12q0-0.312 0.219-0.531t0.531-0.219h5.25q0.312 0 0.688 0.156t0.594 0.375l1.187 1.187q0.219 0.219 0.375 0.594t0.156 0.688v1.273zM7.25 12v-1q0-0.109-0.070-0.18t-0.18-0.070h-1q-0.109 0-0.18 0.070t-0.070 0.18v1q0 0.109 0.070 0.18t0.18 0.070h1q0.109 0 0.18-0.070t0.070-0.18zM7.25 10v-1q0-0.109-0.070-0.18t-0.18-0.070h-1q-0.109 0-0.18 0.070t-0.070 0.18v1q0 0.109 0.070 0.18t0.18 0.070h1q0.109 0 0.18-0.070t0.070-0.18zM7.25 8v-1q0-0.109-0.070-0.18t-0.18-0.070h-1q-0.109 0-0.18 0.070t-0.070 0.18v1q0 0.109 0.070 0.18t0.18 0.070h1q0.109 0 0.18-0.070t0.070-0.18zM9.25 12v-1q0-0.109-0.070-0.18t-0.18-0.070h-1q-0.109 0-0.18 0.070t-0.070 0.18v1q0 0.109 0.070 0.18t0.18 0.070h1q0.109 0 0.18-0.070t0.070-0.18zM9.25 10v-1q0-0.109-0.070-0.18t-0.18-0.070h-1q-0.109 0-0.18 0.070t-0.070 0.18v1q0 0.109 0.070 0.18t0.18 0.070h1q0.109 0 0.18-0.070t0.070-0.18zM9.25 8v-1q0-0.109-0.070-0.18t-0.18-0.070h-1q-0.109 0-0.18 0.070t-0.070 0.18v1q0 0.109 0.070 0.18t0.18 0.070h1q0.109 0 0.18-0.070t0.070-0.18zM11.25 12v-1q0-0.109-0.070-0.18t-0.18-0.070h-1q-0.109 0-0.18 0.070t-0.070 0.18v1q0 0.109 0.070 0.18t0.18 0.070h1q0.109 0 0.18-0.070t0.070-0.18zM11.25 10v-1q0-0.109-0.070-0.18t-0.18-0.070h-1q-0.109 0-0.18 0.070t-0.070 0.18v1q0 0.109 0.070 0.18t0.18 0.070h1q0.109 0 0.18-0.070t0.070-0.18zM11.25 8v-1q0-0.109-0.070-0.18t-0.18-0.070h-1q-0.109 0-0.18 0.070t-0.070 0.18v1q0 0.109 0.070 0.18t0.18 0.070h1q0.109 0 0.18-0.070t0.070-0.18zM12 5v-2h-1.25q-0.312 0-0.531-0.219t-0.219-0.531v-1.25h-5v4h7z"></path>
</svg>

<svg xmlns="http://www.w3.org/2000/svg" width="14" height="14" viewBox="0 0 14 14"><path fill="#444" d="M2.25 3q.516 0 .883.367t.367.883v8.5q0 .516-.367.883T2.25 14h-1q-.516 0-.883-.367T0 12.75v-8.5q0-.516.367-.883T1.25 3h1zM13 4.273q.453.266.727.727T14 6v6q0 .828-.586 1.414T12 14H5.25q-.516 0-.883-.367T4 12.75v-12q0-.312.219-.531T4.75 0H10q.312 0 .688.156t.594.375l1.187 1.187q.219.219.375.594T13 3v1.273zM7.25 12v-1q0-.109-.07-.18T7 10.75H6q-.109 0-.18.07t-.07.18v1q0 .109.07.18t.18.07h1q.109 0 .18-.07t.07-.18zm0-2V9q0-.109-.07-.18T7 8.75H6q-.109 0-.18.07T5.75 9v1q0 .109.07.18t.18.07h1q.109 0 .18-.07t.07-.18zm0-2V7q0-.109-.07-.18T7 6.75H6q-.109 0-.18.07T5.75 7v1q0 .109.07.18t.18.07h1q.109 0 .18-.07T7.25 8zm2 4v-1q0-.109-.07-.18T9 10.75H8q-.109 0-.18.07t-.07.18v1q0 .109.07.18t.18.07h1q.109 0 .18-.07t.07-.18zm0-2V9q0-.109-.07-.18T9 8.75H8q-.109 0-.18.07T7.75 9v1q0 .109.07.18t.18.07h1q.109 0 .18-.07t.07-.18zm0-2V7q0-.109-.07-.18T9 6.75H8q-.109 0-.18.07T7.75 7v1q0 .109.07.18t.18.07h1q.109 0 .18-.07T9.25 8zm2 4v-1q0-.109-.07-.18t-.18-.07h-1q-.109 0-.18.07t-.07.18v1q0 .109.07.18t.18.07h1q.109 0 .18-.07t.07-.18zm0-2V9q0-.109-.07-.18T11 8.75h-1q-.109 0-.18.07T9.75 9v1q0 .109.07.18t.18.07h1q.109 0 .18-.07t.07-.18zm0-2V7q0-.109-.07-.18T11 6.75h-1q-.109 0-.18.07T9.75 7v1q0 .109.07.18t.18.07h1q.109 0 .18-.07t.07-.18zM12 5V3h-1.25q-.312 0-.531-.219T10 2.25V1H5v4h7z"/></svg>
